src/assets/icons/filter-fill.svg

<svg width="14" height="14" viewBox="0 0 14 14" fill="none" xmlns="http://www.w3.org/2000/svg">
<g id="filter-fill">
<g clip-path="url(#clip0_156_4712)">
<path id="Vector" d="M13.7274 0.33847C13.6228 0.130941 13.4095 0 13.1764 0H0.82351C0.590451 0 0.377157 0.130941 0.272568 0.33847C0.167157 0.545999 0.187746 0.795529 0.325275 0.98247L4.73527 6.99588V13.3824C4.73527 13.7233 5.01198 14 5.35292 14H8.64704C8.98798 14 9.26469 13.7233 9.26469 13.3824V6.99588L13.6747 0.98247C13.8122 0.795529 13.8328 0.545999 13.7274 0.33847Z" fill="black"/>
</g>
</g>
<defs>
<clipPath id="clip0_156_4712">
<rect width="14" height="14" fill="white"/>
</clipPath>
</defs>
</svg>

<svg xmlns="http://www.w3.org/2000/svg" fill="none" viewBox="0 0 14 14"><g clip-path="url(#a)"><path fill="#000" d="M13.727.338a.62.62 0 0 0-.55-.338H.823a.617.617 0 0 0-.499.982l4.41 6.014v6.386c0 .341.277.618.618.618h3.294c.341 0 .618-.277.618-.618V6.996l4.41-6.014a.62.62 0 0 0 .052-.644"/></g><defs><clipPath id="a"><path fill="#fff" d="M0 0h14v14H0z"/></clipPath></defs></svg>
